public/img/common/line-pointer.svg

<svg fill="none" height="12" viewBox="0 0 26 12" width="26" xmlns="http://www.w3.org/2000/svg"><path d="m11.3333 6c0-2.94552-2.38778-5.333333-5.3333-5.333333s-5.333334 2.387813-5.333334 5.333333 2.387814 5.3333 5.333334 5.3333 5.3333-2.38778 5.3333-5.3333zm14.6667-1h-20v2h20z" fill="#00e992"/></svg>

<svg width="26" height="12" viewBox="0 0 26 12" fill="none" xmlns="http://www.w3.org/2000/svg">
<path d="M11.3333 6C11.3333 3.05448 8.94552 0.666667 6 0.666667C3.05448 0.666667 0.666666 3.05448 0.666666 6C0.666666 8.94552 3.05448 11.3333 6 11.3333C8.94552 11.3333 11.3333 8.94552 11.3333 6ZM26 5L6 5V7L26 7V5Z" fill="#00E992"/>
</svg>
